X:1
T:Title
%%score ( 1 2 ) { ( 3 5 ) | ( 4 6 ) }
L:1/8
Q:1/4=92
M:4/4
K:Ab
V:1 treble nm="Voice"
V:2 treble 
V:3 treble nm="Piano"
V:5 treble 
V:4 bass 
V:6 bass 
V:1
"^Andante con moto" z8 | z8 | z8 | z8 |!mp! c3 A (GF) (AB) | G3 F =E3 C | F4- F2 F F | c6 F2 | %8
 f3 e (=dc) (de) | =d3 =B G3 F | E4- E2 E E | B6 B2 | B3 =A (GF) (GA) | c3 B =A2 F2 | d4- d2 d d | %15
 c6 F2 | G3 A G2 F2 | (=E4 G2) c2 | =d4 G3 G |!>(! c8!>)! |!mp! c3 A (GF) (AB) | G3 F =E3 C | %22
 F4- F2 F F | c6 F2 | f3 e (=dc) (de) | =d3 =B G3 F | E4- E2 E E | B6 B2 | B3 =A (GF) (GA) | %29
 c3 B =A2 F2 | d4- d2 d d | c6 F2 | G3 A G2 F2 | (=E4 G2) c2 | =d4 G3 G |!>(! c8!>)! | %36
!mp! c3 A (GF) (AB) | G3 F =E3 C | F4- F2 F F | c6 F2 | f3 e (=dc) (de) | =d3 =B G3 F | %42
 E4- E2 E E | B6 B2 | B3 =A (GF) (GA) | c3 B =A2 F2 | d4- d2 d d | c6 F2 | G3 A G2 F2 | %49
 (=E4 G2) c2 | =d4 G3 G | c8 | z8 | z4 z2!mf! A A | A4 A2 G F | d6 c2 | c3 B (AG) (AB) | c6 z c | %58
 d3 d c3 c | B2 c B A2 z A | G3 A B2 d2 | c6 c2 |[Q:1/4=88]"^rall." f6[Q:1/4=82][Q:1/4=78] z2 | %63
[Q:1/4=75] z8[Q:1/4=70] |] %64
V:2
 x8 | x8 | x8 | x8 | x8 | x8 | x8 | x8 | x8 | x8 | x8 | x8 | x8 | x8 | x8 | x8 | x8 | x8 | x8 | %19
 x8 | x8 | x8 | x8 | x8 | x8 | x8 | x8 | x8 | x8 | x8 | x8 | x8 | x8 | x8 | x8 | x8 | x8 | x8 | %38
 x8 | x8 | x8 | x8 | x8 | x8 | x8 | x8 | x8 | x8 | x8 | x8 | x8 | x8 | x8 | x8 | x8 | x8 | x8 | %57
 x8 | d2 x6 | B2 x6 | x8 | x8 | x8 | x8 |] %64
V:3
 z (C[FA]C [Ac]C[FA]C) | z (D[FB]D [Bd]D[FB]D) | z (B,[DG]B, [=EG]G,[B,E]G,) | %3
 z (A,[CF]A, [Ac]C[FA]C) |!p! z (C[FA]C [Ac]C[FA]C) | z (B,[=EG]B, [GB]B,[EG]B,) | %6
 z (A,[CF]A, [Ac]C[FA]C) | z (A,[CF]A, [Ac]C[FA]C) | z (A,[CF]A, [Ac]C[FA]C) | %9
 z (=B,[=DG]B, [=B=d]D[FG]B,) | z (C[EG]C [eg]G[ce]G) | z (B,[EG]B, [GB]B,[EG]B,) | %12
 z (=A,[CE]A, [=Ac]C[EF]C) | z (=A,[CF]A, [=Ac]C[EF]C) | z (D[FB]D [df]F[Bd]F) | %15
 z (C[FA]C [Ac]C[FA]C) | z (=B,[FA]B, [G=B]B,[=DF]B,) | z (C[=EG]C [c=e]G[EG]C) | %18
 z (=B,[FG]B, [G=B]B,[FG]B,) | z!>(! (C[=EG]C [Gc]C[EG]C)!>)! |!p! z (C[FA]C [Ac]C[FA]C) | %21
 z (B,[=EG]B, [GB]B,[EG]B,) | z (A,[CF]A, [Ac]C[FA]C) | z (A,[CF]A, [Ac]C[FA]C) | %24
 z (A,[CF]A, [Ac]C[FA]C) | z (=B,[=DG]B, [=B=d]D[FG]B,) | z (C[EG]C [eg]G[ce]G) | %27
 z (B,[EG]B, [GB]B,[EG]B,) | z (=A,[CE]A, [=Ac]C[EF]C) | z (=A,[CF]A, [=Ac]C[EF]C) | %30
 z (D[FB]D [df]F[Bd]F) | z (C[FA]C [Ac]C[FA]C) | z (=B,[FA]B, [G=B]B,[=DF]B,) | %33
 z (C[=EG]C [c=e]G[EG]C) | z (=B,[FG]B, [G=B]B,[FG]B,) |!>(! z (C[=EG]C [Gc]C[EG]C)!>)! | %36
!p! z (C[FA]C [Ac]C[FA]C) | z (B,[=EG]B, [GB]B,[EG]B,) | z (A,[CF]A, [Ac]C[FA]C) | %39
 z (A,[CF]A, [Ac]C[FA]C) | z (A,[CF]A, [Ac]C[FA]C) | z (=B,[=DG]B, [=B=d]D[FG]B,) | %42
 z (C[EG]C [eg]G[ce]G) | z (B,[EG]B, [GB]B,[EG]B,) | z (=A,[CE]A, [=Ac]C[EF]C) | %45
 z (=A,[CF]A, [=Ac]C[EF]C) | z (D[FB]D [df]F[Bd]F) | z (C[FA]C [Ac]C[FA]C) | %48
 z (=B,[FA]B, [G=B]B,[=DF]B,) | z (C[=EG]C [c=e]G[EG]C) | z (=B,[FG]B, [G=B]B,[FG]B,) | %51
 z (C[=EG]C [c=e]G[EG]C) | z (=E[Gc]E [Bd]E[Bd]E) | z (=E[Gc]E [Bd]E[Bd]E) | %54
 z (A[cf]A [fa]A[cf]A) | z (B[df]B [bd']d[fb]d) | z (B[df]B [bd']d[fb]d) | z (A[cf]A [ac']c[fa]c) | %58
 z (G[Bd]G [ac']c[ea]c) | z (G[Bd]G [fa]A[cf]A) | z (F[GB]F [gb]B[df]G) | z (G[Bc]G [=eg]B[ce]G) | %62
!>(! z (C[FA]C [Ac]C[FA]C)!>)! |!p! z (C[FA]C !arpeggio!!fermata![FAcf]4) |] %64
V:4
!ped! [F,,,F,,]8!ped-up! |!ped! [F,,,F,,]8!ped-up! |!ped! [F,,,F,,]8!ped-up! | %3
!ped! [F,,,F,,]8!ped-up! |!ped! [F,,,F,,]8!ped-up! |!ped! [F,,,F,,]8!ped-up! | %6
!ped! [F,,,F,,]8!ped-up! |!ped! [E,,,E,,]8!ped-up! |!ped! [=D,,,=D,,]8!ped-up! | %9
!ped! [G,,,G,,]8!ped-up! |!ped! [C,,,C,,]8!ped-up! |!ped! [B,,,B,,]8!ped-up! | %12
!ped! [F,,,F,,]8!ped-up! |!ped! [F,,,F,,]8!ped-up! |!ped! [B,,,B,,]8!ped-up! | %15
!ped! [C,,C,]8!ped-up! |!ped! [G,,,G,,]8!ped-up! |!ped! [C,,C,]8!ped-up! | %18
!ped! [G,,,G,,]8!ped-up! |!ped! [C,,C,]8!ped-up! |!ped! [F,,,F,,]8!ped-up! | %21
!ped! [F,,,F,,]8!ped-up! |!ped! [F,,,F,,]8!ped-up! |!ped! [E,,,E,,]8!ped-up! | %24
!ped! [=D,,,=D,,]8!ped-up! |!ped! [G,,,G,,]8!ped-up! |!ped! [C,,,C,,]8!ped-up! | %27
!ped! [B,,,B,,]8!ped-up! |!ped! [F,,,F,,]8!ped-up! |!ped! [F,,,F,,]8!ped-up! | %30
!ped! [B,,,B,,]8!ped-up! |!ped! [C,,C,]8!ped-up! |!ped! [G,,,G,,]8!ped-up! | %33
!ped! [C,,C,]8!ped-up! |!ped! [G,,,G,,]8!ped-up! |!ped! [C,,C,]8!ped-up! | %36
!ped! [F,,,F,,]8!ped-up! |!ped! [F,,,F,,]8!ped-up! |!ped! [F,,,F,,]8!ped-up! | %39
!ped! [E,,,E,,]8!ped-up! |!ped! [=D,,,=D,,]8!ped-up! |!ped! [G,,,G,,]8!ped-up! | %42
!ped! [C,,,C,,]8!ped-up! |!ped! [B,,,B,,]8!ped-up! |!ped! [F,,,F,,]8!ped-up! | %45
!ped! [F,,,F,,]8!ped-up! |!ped! [B,,,B,,]8!ped-up! |!ped! [C,,C,]8!ped-up! | %48
!ped! [G,,,G,,]8!ped-up! |!ped! [C,,C,]8!ped-up! |!ped! [G,,,G,,]8!ped-up! | %51
!ped! [C,,C,]8!ped-up! |!ped! [C,,C,]8!ped-up! |!ped! [C,,C,]8!ped-up! |!ped! [F,,,F,,]8!ped-up! | %55
!ped! [F,,,F,,]8!ped-up! |!ped! [F,,,F,,]8!ped-up! |!ped! [F,,,F,,]8!ped-up! | %58
!ped! [=E,,,=E,,]4!ped-up!!ped! [A,,,A,,]4!ped-up! | %59
!ped! [B,,,B,,]4!ped-up!!ped! [C,,C,]4!ped-up! |!ped! [D,,D,]8!ped-up! |!ped! [C,,C,]8!ped-up! | %62
!ped! [F,,,F,,]8!ped-up! |!ped! !fermata![F,,,F,,]8!ped-up! |] %64
V:5
 x8 | x8 | x8 | x8 | x8 | x8 | x8 | x8 | x8 | x8 | x8 | x8 | x8 | x8 | x8 | x8 | x8 | x8 | x8 | %19
 x8 | x8 | x8 | x8 | x8 | x8 | x8 | x8 | x8 | x8 | x8 | x8 | x8 | x8 | x8 | x8 | x8 | x8 | x8 | %38
 x8 | x8 | x8 | x8 | x8 | x8 | x8 | x8 | x8 | x8 | x8 | x8 | x8 | x8 | x8 | x8 | x8 | x8 | x8 | %57
 x8 | x8 | x8 | x8 | x8 | x8 | x3 C x4 |] %64
V:6
 x8 | x8 | x8 | x8 | x8 | x8 | x8 | x8 | x8 | x8 | x8 | x8 | x8 | x8 | x8 | x8 | x8 | x8 | x8 | %19
 x8 | x8 | x8 | x8 | x8 | x8 | x8 | x8 | x8 | x8 | x8 | x8 | x8 | x8 | x8 | x8 | x8 | x8 | x8 | %38
 x8 | x8 | x8 | x8 | x8 | x8 | x8 | x8 | x8 | x8 | x8 | x8 | x8 | x8 | x8 | x8 | x8 | x8 | x8 | %57
 x8 | x8 | x8 | x8 | x8 | x8 | x3 F,- !fermata!F,4 |] %64

